X: 10491
Q: "Andante"
M: 2/4
L: 1/16
K: G
V: 1
d2d2 |\
(edef) {a/}(g2fe) | (e2d2) (gdBG) | A2B2 {d/}c2Bc | (c2B2) d2d2 |\
(edef) {a/}(g2fe) | (e2d2) (gdBG) | A2B2 {d/}c2BA | G4 :|
|: (g3f) |\
(e3d) (c3B) | .c2.A2 (a3g) | (f3e) (d3c) | (c2B2) d2d2 |\
(edef) {a/}(g2fe) | (e2d2) (gdBG) | A2B2 {d/}c2BA | G4 :|
V: 2
(cBcd) {f/}(e2dc) | (c2B2)  B2G2  | F2G2 {B/}A2GF | G4 :||: (e3d) | (c3B) (A3^G) |
.A2.A2 (f3e) | (d3c) (B3A) | (A2G2) B2B2 | (cBcd) {f/}(e2dc) | (c2B2)  B2G2  | F2G2 {B/}A2GF | G4 :|


